X: 456
T:Don't Dilly Dally
C:As played by Lou Heath, 10/24/98, West Hopkinton, NH
R:reel
M:2/4
Z:<http://tunes.nhcountrydance.com>.
K:F
L:1/8
A | "F" c2 d2 | A3 F | "G7" G A2 G | D4 | "C7" E2 c>c | cBG^G | "F" A4 - | A4 |
"A7" A2>B2 | A2>G2 | GG A2 | "Dm" G F2 G-| "G7" G2>A2 | G2 F2 | "C" EE"G7"F^F | "C7" Gccc|]
"F" c3 B | Ac2c | c>dcB | A c3 c | c>dcA | GFDF | "C7" G4- | G4 |
"F" F2F>G | AG F2 | "Bb" G2 GA | BGAB | "C7" c2 d2 |A2 G2 | "F" F4- | F3 |]

